!!!OTL: HAESCHEN IN DER GRUBE
!!!ARE: Europa, Mitteleuropa, Deutschland, Hessen, Nauheim
!!!SCT: K2409B
!!!YEM: Copyright 1995, estate of Helmut Schaffrath.
**kern
*ICvox
*Ivox
*M2/4
*k[f#]
*G:
=1
{8dd
8b
8ee
8dd
=2
8dd
8cc
8cc
8dd
=3
4b
4r}
=4
{8a
8b
8cc
8ee
=5
8ee
8dd
4dd}
=6
{8dd
8b
8ee
8dd
=7
8dd
8cc
4cc}
=8
{8a
8b
8cc
8dd
=9
4b
4r}
==
!!!AGN: Kinder - Lied, Tanz -, Lauf - Spiel
!!!ONB: ESAC (Essen Associative Code) Database: KINDER
!!!AMT: simple duple
!!!AIN: vox
!!!EED: Helmut Schaffrath
!!!EEV: 1.0
*-
